X:1
T:Title
%%score { ( 1 3 ) | ( 2 4 ) }
L:1/8
M:4/4
K:Eb
V:1 treble nm="Grand Piano"
V:3 treble 
V:2 bass 
V:4 bass 
V:1
 z4 z2[Q:1/4=100] [EG]>[FA] | [GB]>[GB] [GB]>[Ac] [GB]>G F>E |[M:3/4] A>A A>A G2 |[M:1/4] G>G | %4
[M:4/4] F>F F>F [CE=A]>[CEA] [=A,EG]>[EA] |[M:3/4] [DB]6 |[M:1/4] [DB]>[FA] | %7
[M:4/4] G>G G>[FA] [GB]>G F>E |[M:9/8] [CA]>[CA][CA]- [CA]/[CA]/ [Ec]2- [Ec][Ec]>[Ec] | %9
[M:4/4] [EB]>[EB] [EB]>[Ec] [EB]>[B,EG] [A,DF]>[A,DF] |[M:3/4] [G,E]6 |[M:1/4] [EGB]>[EGB] | %12
[M:4/4] [EAc]>[EAc] [EAc]>[EAc] [EAc]>[Ece] [EBd]>[EAc] | B2- [GB-]>[GB-] [GB]2 [EGB]2 | %14
 =A2 A>A A>A G>A |[M:3/4] [B,B]6 |[M:1/4] z2 |[M:4/4] z8 | %18
[M:9/8] [CA]>[CA][CA]- [CA]/[CA]/ [Ec]2- [Ec][Ec]>[Ec] | %19
[M:4/4] [EB]>[EB] [EB]>[Ec] [EB]>[B,EG] [A,DF]>[A,DF] |[M:7/4] [G,E]6 z2 z2 z4 |] %21
V:2
 z4 z2 [E,B,]>[E,B,] | [E,E]>[E,E] [E,E]>[E,E] [E,E]>[E,B,E] [E,A,E]>[E,G,] | %2
[M:3/4] [E,CE]>[E,CE] [E,CE]>[E,CE] [E,B,E]2 |[M:1/4] [E,B,E]>[E,B,E] | %4
[M:4/4] [F,B,D]>[F,B,D] [F,B,D]>[F,B,D] F,,>F,, F,,>[F,,F,] |[M:3/4] [B,,F,]6 | %6
[M:1/4] [B,,B,]>[D,B,] |[M:4/4] [E,B,E]>[E,B,E] [E,B,E]>[E,B,] [E,E]>[E,B,E] [E,A,E]>[E,G,] | %8
[M:9/8] [A,,A,]>[A,,A,][A,,A,]- [A,,A,]/[A,,A,]/ [A,,A,]2- [A,,A,][A,,A,]>[A,,A,] | %9
[M:4/4] [B,,G,]>[B,,G,] [B,,G,]>[B,,A,] [B,,G,]>B,, B,,>B,, |[M:3/4] E,6 |[M:1/4] E,>E, | %12
[M:4/4] A,>A, A,>A, A,>A, A,>A, | z2 E>E E2 E,2 | %14
 [F,CE]2 [F,CE]>[F,CE] [F,CE]>[F,CE] [F,=A,E]>[F,CE] |[M:3/4] z2 z2 D2 |[M:1/4] B,,>D, | %17
[M:4/4] E,>E, E,>E, E,>E, E,>E, | %18
[M:9/8] [A,,A,]>[A,,A,][A,,A,]- [A,,A,]/[A,,A,]/ [A,,A,]2- [A,,A,][A,,A,]>[A,,A,] | %19
[M:4/4] [B,,G,]>[B,,G,] [B,,G,]>[B,,A,] [B,,G,]>B,, B,,>B,, |[M:7/4] E,6 z2 z2 z4 |] %21
V:3
 x8 | x8 |[M:3/4] x6 |[M:1/4] x2 |[M:4/4] x8 |[M:3/4] x6 |[M:1/4] x2 |[M:4/4] x8 |[M:9/8] x9 | %9
[M:4/4] x8 |[M:3/4] x6 |[M:1/4] x2 |[M:4/4] x8 | [EG]2 z2 z4 | x8 |[M:3/4] E6- | %16
[M:1/4] [B,DE-B]>[B,E-FA] |[M:4/4] [B,EG]>[B,EG] [B,EG]>[B,FA] [EGB]>[B,EG] [A,EF]>[G,E] | %18
[M:9/8] x9 |[M:4/4] x8 |[M:7/4] x14 |] %21
V:4
 x8 | x8 |[M:3/4] x6 |[M:1/4] x2 |[M:4/4] x8 |[M:3/4] x6 |[M:1/4] x2 |[M:4/4] x8 |[M:9/8] x9 | %9
[M:4/4] x8 |[M:3/4] x6 |[M:1/4] x2 |[M:4/4] x8 | E,6 z2 | x8 |[M:3/4] B,,6 |[M:1/4] x2 | %17
[M:4/4] x8 |[M:9/8] x9 |[M:4/4] x8 |[M:7/4] x14 |] %21

